src/assets/icons/_stir.svg

<svg xmlns="http://www.w3.org/2000/svg" width="128" height="128" viewBox="0 0 128 128">
  <g fill="none" fill-rule="evenodd">
    <rect width="8" height="88" x="60" y="4" fill="#000" rx="4"/>
    <rect width="24" height="40" x="52" y="84" fill="#000" rx="12"/>
    <path fill="#000" fill-rule="nonzero" d="M104.888816,36.7022543 C105.556146,37.1931337 105.699187,38.1320477 105.208307,38.7993774 C104.717428,39.466707 103.778514,39.6097482 103.111184,39.1188687 C98.1096225,35.4397819 84.9820583,33.5 64,33.5 C49.1293551,33.5 35.1110215,35.479924 24.460417,38.8067759 C15.0890756,41.7340337 9.5,45.4457916 9.5,48 C9.5,50.5611613 14.9178276,54.149281 24.1728982,56.959668 C34.6939016,60.154467 48.7475454,62.0399077 64,62.0399077 C78.415249,62.0399077 91.4975531,59.824803 103.254535,55.3998482 L99.703516,48.4209274 L120.945649,48.2732905 L108.318479,65.3555788 L104.622246,58.0899188 C92.4347505,62.7250412 78.891396,65.0399077 64,65.0399077 C32.8408248,65.0399077 6.5,57.041275 6.5,48 C6.5,38.9551783 33.5684608,30.5 64,30.5 C85.6377334,30.5 99.1768358,32.5005924 104.888816,36.7022543 Z"/>
  </g>
</svg>

<svg xmlns="http://www.w3.org/2000/svg" viewBox="0 0 128 128">
    <g fill="#000" fill-rule="evenodd">
        <rect width="8" height="88" x="60" y="4" rx="4"/>
        <rect width="24" height="40" x="52" y="84" rx="12"/>
        <path fill-rule="nonzero" d="M104.889 36.702a1.5 1.5 0 11-1.778 2.417C98.11 35.439 84.982 33.5 64 33.5c-14.87 0-28.889 1.98-39.54 5.307C15.09 41.734 9.5 45.446 9.5 48c0 2.561 5.418 6.15 14.673 8.96 10.52 3.194 24.575 5.08 39.827 5.08 14.415 0 27.498-2.215 39.255-6.64l-3.551-6.98 21.242-.147-12.628 17.083-3.696-7.266C92.435 62.725 78.892 65.04 64 65.04 32.84 65.04 6.5 57.04 6.5 48c0-9.045 27.068-17.5 57.5-17.5 21.638 0 35.177 2 40.889 6.202z"/>
    </g>
</svg>
